X:1
T:Spjellstugguvalsen
R:vals
Z:Smaaviltlaget, paa Skuddhold, Track 7
M:3/4
L:1/8
K:D
b ag\
|: "D"f2 f2 ed | "A"e2 ed ef | "A/E"g2 ge ce | "D"d3 b ag |\
   "D"f2 f2 ed | "A"e2 ed ef | "A/E"g2 ge ce |[1 "D"d2 db ag :|[2 "D"d3 d ef |
|: "G"g2 bg bg | "D"f2 af af | "A"ef ge ce | "D"d2 c<d ef |\
   "G"g2 bg bg | "D"f2 af af | "A"ef ge ce |[1 "D"d3 d ef :|[2 "D"d3  |

